dist/img/icon/heading-icon.svg

<svg width="48" height="46" viewBox="0 0 48 46" fill="none" xmlns="http://www.w3.org/2000/svg">
<g clip-path="url(#clip0_9_411)">
<path d="M27.5234 45.356C14.306 45.3483 3.60336 34.6303 3.61103 21.413C3.61103 12.2973 8.80136 3.97134 16.9817 -0.0459936C17.3267 -0.222327 17.7484 -0.0766603 17.9247 0.26834C18.101 0.61334 17.9554 1.03501 17.6104 1.21134C6.44003 6.71601 1.84769 20.24 7.34469 31.4103C11.132 39.1 18.952 43.976 27.5234 43.999C30.7894 44.022 34.0094 43.309 36.961 41.8983C37.3214 41.745 37.7277 41.9213 37.881 42.274C38.019 42.596 37.8887 42.9717 37.5897 43.148C34.4387 44.6047 30.9964 45.3637 27.5234 45.356Z" fill="#00AEEF"/>
<path d="M11.9447 43.7307C11.799 43.7307 11.6457 43.6694 11.5307 43.5697C8.00403 41.0397 5.12902 37.72 3.13569 33.8714C1.08103 29.9077 2.51249e-05 25.507 2.51249e-05 21.0374C-0.0153082 14.9117 2.01636 8.94702 5.75769 4.10169C5.98769 3.81035 6.40169 3.74902 6.70836 3.97902C6.99969 4.20135 7.06103 4.62302 6.83103 4.92202C0.575025 13.0947 -0.390975 24.1653 4.34703 33.304C6.26369 36.9457 9.00069 40.1044 12.3204 42.527C12.627 42.7417 12.696 43.1557 12.4737 43.4623C12.351 43.631 12.1517 43.7307 11.9447 43.7307Z" fill="#FFF200"/>
<path d="M27.899 42.0286C26.5266 42.0286 25.323 41.906 24.4183 41.7066C13.156 39.2226 6.00297 28.037 8.49464 16.767C10.7026 6.76965 19.0516 0.0536499 29.256 0.0536499C30.935 0.0536499 32.8363 0.0536499 34.799 0.35265C35.1746 0.406317 35.4353 0.758983 35.374 1.13465C35.3203 1.51032 34.9676 1.77098 34.592 1.70965C32.729 1.42598 30.889 1.42598 29.256 1.42598C19.711 1.42598 11.9063 7.71265 9.83631 17.0583C7.52097 27.577 14.1833 38.0266 24.7173 40.3497C27.4543 40.9553 33.511 40.733 37.8426 38.3333C42.3966 35.8186 44.781 32.7903 45.977 30.6973C46.1686 30.3677 46.575 30.2526 46.92 30.4443C47.2496 30.636 47.3646 31.0576 47.173 31.3873C45.885 33.6336 43.3396 36.8767 38.5096 39.5447C35.2206 41.3617 31.1113 42.0286 27.899 42.0286Z" fill="#EC008C"/>
</g>
<defs>
<clipPath id="clip0_9_411">
<rect width="47.5333" height="46" fill="white"/>
</clipPath>
</defs>
</svg>

<svg width="48" height="46" viewBox="0 0 48 46" fill="none" xmlns="http://www.w3.org/2000/svg"><g clip-path="url(#clip0_9_411)"><path d="M27.523 45.356C14.306 45.348 3.603 34.63 3.611 21.413c0-9.116 5.19-17.442 13.37-21.459a.704.704 0 01.629 1.257C6.44 6.716 1.848 20.24 7.345 31.411a22.56 22.56 0 0020.178 12.588c3.266.023 6.486-.69 9.438-2.1a.7.7 0 01.629 1.25 23.892 23.892 0 01-10.067 2.207z" fill="#00AEEF"/><path d="M11.945 43.73a.652.652 0 01-.414-.16 27.499 27.499 0 01-8.395-9.699A27.892 27.892 0 010 21.037 27.617 27.617 0 015.758 4.102a.68.68 0 01.95-.123.67.67 0 01.123.943 26.585 26.585 0 00-2.484 28.382 27.005 27.005 0 007.973 9.223.658.658 0 01.154.935.657.657 0 01-.53.269z" fill="#FFF200"/><path d="M27.899 42.029c-1.372 0-2.576-.123-3.48-.322-11.263-2.484-18.416-13.67-15.924-24.94C10.703 6.77 19.052.054 29.256.054c1.679 0 3.58 0 5.543.299a.68.68 0 01.575.782.68.68 0 01-.782.575c-1.863-.284-3.703-.284-5.336-.284-9.545 0-17.35 6.287-19.42 15.632-2.315 10.519 4.347 20.969 14.881 23.292 2.737.605 8.794.383 13.126-2.017 4.554-2.514 6.938-5.543 8.134-7.636a.69.69 0 011.196.69c-1.288 2.247-3.833 5.49-8.663 8.158-3.29 1.817-7.399 2.484-10.611 2.484z" fill="#EC008C"/></g><defs><clipPath id="clip0_9_411"><rect width="47.533" height="46" fill="#fff"/></clipPath></defs></svg>
